assets/2023/icons/cu.svg

<svg width="16" height="16" viewBox="0 0 16 16" fill="none" xmlns="http://www.w3.org/2000/svg">
<path d="M4.99846 13.1716C4.42646 13.1716 3.94741 13.0119 3.56131 12.6925C3.17997 12.3684 2.89159 11.8798 2.69616 11.2268C2.50549 10.569 2.41016 9.73482 2.41016 8.72429V7.26569C2.41016 6.25516 2.50549 5.42337 2.69616 4.77034C2.89159 4.11254 3.17997 3.62396 3.56131 3.30459C3.94741 2.98046 4.42646 2.81839 4.99846 2.81839C5.50849 2.81839 5.94226 2.94232 6.29976 3.19019C6.65726 3.43329 6.93372 3.80271 7.12916 4.29844C7.32936 4.79417 7.45091 5.42099 7.49381 6.17889H6.14961C6.11624 5.68792 6.05189 5.28514 5.95656 4.97054C5.86122 4.65594 5.73252 4.42237 5.57046 4.26984C5.40839 4.11254 5.21772 4.03389 4.99846 4.03389C4.73629 4.03389 4.51464 4.15067 4.33351 4.38424C4.15714 4.61781 4.02367 4.97292 3.93311 5.44959C3.84254 5.92626 3.79726 6.53162 3.79726 7.26569V8.72429C3.79726 9.45836 3.84254 10.0637 3.93311 10.5404C4.02367 11.0171 4.15714 11.3722 4.33351 11.6057C4.51464 11.8393 4.73629 11.9561 4.99846 11.9561C5.21772 11.9561 5.40839 11.8798 5.57046 11.7273C5.73252 11.5748 5.86122 11.3412 5.95656 11.0266C6.05189 10.712 6.11624 10.3068 6.14961 9.81109H7.49381C7.45091 10.5738 7.32936 11.203 7.12916 11.6987C6.93372 12.1897 6.65726 12.5591 6.29976 12.8069C5.94702 13.05 5.51326 13.1716 4.99846 13.1716Z" fill="#369650"/>
<path d="M10.9083 13.1716C10.3792 13.1716 9.93587 13.0238 9.57837 12.7283C9.22087 12.4328 8.95155 11.9895 8.77042 11.3984C8.58928 10.8073 8.49872 10.0685 8.49872 9.18189V2.98999H9.84292V9.17474C9.84292 9.79441 9.88105 10.3116 9.95732 10.7263C10.0384 11.1362 10.1575 11.4437 10.3148 11.6486C10.4721 11.8536 10.6699 11.9561 10.9083 11.9561C11.1418 11.9561 11.3349 11.8536 11.4874 11.6486C11.6447 11.4437 11.7615 11.1362 11.8378 10.7263C11.9188 10.3116 11.9593 9.79441 11.9593 9.17474V2.98999H13.3035V9.18189C13.3035 10.0685 13.2129 10.8073 13.0318 11.3984C12.8507 11.9895 12.5814 12.4328 12.2239 12.7283C11.8711 13.0238 11.4326 13.1716 10.9083 13.1716Z" fill="#369650"/>
</svg>

<svg xmlns="http://www.w3.org/2000/svg" width="16" height="16" fill="none" viewBox="0 0 16 16"><path fill="#369650" d="M4.998 13.172q-.857 0-1.437-.48-.572-.486-.865-1.465-.285-.987-.286-2.503V7.266q0-1.516.286-2.496.294-.986.865-1.465.579-.487 1.437-.487.765 0 1.302.372.536.365.83 1.108.299.744.364 1.88H6.15q-.05-.735-.193-1.207T5.57 4.27a.8.8 0 0 0-.572-.236q-.393 0-.664.35-.265.35-.4 1.066-.137.714-.137 1.816v1.458q0 1.102.136 1.816.136.715.4 1.066.273.35.665.35.33 0 .572-.229.244-.229.387-.7.143-.472.193-1.216h1.344q-.065 1.144-.365 1.888-.293.736-.83 1.108-.529.365-1.3.365m5.909 0q-.793 0-1.33-.444-.535-.443-.808-1.33-.27-.886-.271-2.216V2.99h1.344v6.185q0 .93.114 1.551.121.615.358.923a.72.72 0 0 0 .593.307q.35 0 .58-.307.236-.308.35-.923.12-.622.121-1.551V2.99h1.345v6.192q0 1.33-.272 2.216-.271.887-.808 1.33-.529.444-1.316.444"/></svg>
